Numix/scalable/places/folder-videos-symbolic.svg

<svg xmlns="http://www.w3.org/2000/svg" viewBox="0 0 16 16">
 <path d="m 2 0 c -1.108 0 -2 0.892 -2 2 l 0 12 c 0 1.108 0.892 2 2 2 l 12 0 c 1.108 0 2 -0.892 2 -2 l 0 -12 c 0 -1.108 -0.892 -2 -2 -2 l -12 0 z m 0 2 l 2 0 l 0 2 l -2 0 l 0 -2 z m 10 0 l 2 0 l 0 2 l -2 0 l 0 -2 z m -10 5 l 2 0 l 0 2 l -2 0 l 0 -2 z m 10 0 l 2 0 l 0 2 l -2 0 l 0 -2 z m -10 5 l 2 0 l 0 2 l -2 0 l 0 -2 z m 10 0 l 2 0 l 0 2 l -2 0 l 0 -2 z" style="fill:#bebebe;fill-opacity:1"/>
</svg>

<?xml version="1.0" encoding="UTF-8" standalone="no"?>
<svg
   xmlns:dc="http://purl.org/dc/elements/1.1/"
   xmlns:cc="http://creativecommons.org/ns#"
   xmlns:rdf="http://www.w3.org/1999/02/22-rdf-syntax-ns#"
   xmlns:svg="http://www.w3.org/2000/svg"
   xmlns="http://www.w3.org/2000/svg"
   xmlns:sodipodi="http://sodipodi.sourceforge.net/DTD/sodipodi-0.dtd"
   xmlns:inkscape="http://www.inkscape.org/namespaces/inkscape"
   viewBox="0 0 16 16"
   id="svg2"
   version="1.1"
   inkscape:version="0.91 r"
   width="100%"
   height="100%"
   sodipodi:docname="folder-videos-symbolic.svg">
  <metadata
     id="metadata28">
    <rdf:RDF>
      <cc:Work
         rdf:about="">
        <dc:format>image/svg+xml</dc:format>
        <dc:type
           rdf:resource="http://purl.org/dc/dcmitype/StillImage" />
        <dc:title />
      </cc:Work>
    </rdf:RDF>
  </metadata>
  <defs
     id="defs26" />
  <sodipodi:namedview
     pagecolor="#ffffff"
     bordercolor="#666666"
     borderopacity="1"
     objecttolerance="10"
     gridtolerance="10"
     guidetolerance="10"
     inkscape:pageopacity="0"
     inkscape:pageshadow="2"
     inkscape:window-width="1920"
     inkscape:window-height="1023"
     id="namedview24"
     showgrid="true"
     inkscape:zoom="31.620488"
     inkscape:cx="17.137076"
     inkscape:cy="6.1899767"
     inkscape:window-x="0"
     inkscape:window-y="28"
     inkscape:window-maximized="1"
     inkscape:current-layer="svg2">
    <inkscape:grid
       type="xygrid"
       id="grid3005" />
  </sodipodi:namedview>
  <path
     style="fill:#bebebe;fill-opacity:1"
     d="M 2 0 C 0.892 0 0 0.892 0 2 L 0 14 C 0 15.108 0.892 16 2 16 L 14 16 C 15.108 16 16 15.108 16 14 L 16 2 C 16 0.892 15.108 0 14 0 L 2 0 z M 2 2 L 4 2 L 4 4 L 2 4 L 2 2 z M 12 2 L 14 2 L 14 4 L 12 4 L 12 2 z M 2 7 L 4 7 L 4 9 L 2 9 L 2 7 z M 12 7 L 14 7 L 14 9 L 12 9 L 12 7 z M 2 12 L 4 12 L 4 14 L 2 14 L 2 12 z M 12 12 L 14 12 L 14 14 L 12 14 L 12 12 z "
     id="rect3007" />
  <rect
     ry="2"
     rx="2"
     y="0"
     x="-18"
     height="16"
     width="16"
     id="rect3777"
     style="fill:#bebebe;fill-opacity:1" />
</svg>
